uploads/music/volume-on.svg

<svg height="22" viewBox="0 0 24 22" width="24" xmlns="http://www.w3.org/2000/svg"><g fill="none" fill-rule="evenodd"><path d="m18.2314696 2.6886572-1.0711226 1.06291569c-1.5841902-1.09904727-3.5047129-1.75157289-5.5842973-1.75157289-2.07476435 0-3.99314482.64875067-5.5751928 1.74348373l-1.23286204-1.22308107-.76799486.7625382 1.48404027 1.47330577c.09747216.14614417.26403171.24375337.45469152.24375337.13496144 0 .25653385-.05069207.35186375-.13158368 1.46529563-1.11792198 3.2937018-1.78986158 5.28545416-1.78986158 2.0024636 0 3.841581.6789502 5.3116967 1.80765774l.0053556-.00701061c.0931876.07442028.20994.12079813.3384747.12079813.1906598 0 .3572194-.0976092.4541559-.24375337l1.3142674-1.30451195z" fill="#000" fill-rule="nonzero"/><path d="m17 12h3v10h-3z" fill="#d96459"/><path d="m4 12h3v10h-3z" fill="#d96459"/><path d="m12 0c-6.62727273 0-12 5.4175-12 12.1 0 2.21925.60109091 4.2933 1.63636364 6.08025v2.16975c0 .30415.24381818.55.54545454.55h1.73672727c.22527273.6391.82472728 1.1 1.536 1.1.90381819 0 1.63636364-.73865 1.63636364-1.65v-6.6c0-.91135-.73254545-1.65-1.63636364-1.65-.71181818 0-1.31072727.4609-1.536 1.1h-1.73672727c-.30163636 0-.54545454.24585-.54545454.55v1.7226c-.34472728-1.06425-.54545455-2.1923-.54545455-3.3726 0-6.0753 4.884-11 10.90909091-11 6.0250909 0 10.9090909 4.9247 10.9090909 11 0 1.1803-.2007273 2.30835-.5454545 3.3726v-1.7226c0-.30415-.2438182-.55-.5454546-.55h-1.7367273c-.2252727-.6391-.8247272-1.1-1.536-1.1-.9038181 0-1.6363636.73865-1.6363636 1.65v6.6c0 .91135.7325455 1.65 1.6363636 1.65.7118182 0 1.3107273-.4609 1.536-1.1h1.7367273c.3016364 0 .5454546-.24585.5454546-.55v-2.16975c1.0352727-1.78695 1.6363636-3.86045 1.6363636-6.08025 0-6.6825-5.3727273-12.1-12-12.1zm-7.09090909 13.75c0-.30415.24381818-.55.54545454-.55.30163637 0 .54545455.24585.54545455.55v6.6c0 .30415-.24381818.55-.54545455.55-.30163636 0-.54545454-.24585-.54545454-.55zm-2.18181818.55h1.09090909v5.5h-1.09090909zm16.36363637 6.05c0 .30415-.2438182.55-.5454546.55-.3016363 0-.5454545-.24585-.5454545-.55v-6.6c0-.30415.2438182-.55.5454545-.55.3016364 0 .5454546.24585.5454546.55zm2.1818182-.55h-1.0909091v-5.5h1.0909091z" fill="#000" fill-rule="nonzero"/></g></svg>

<?xml version="1.0" encoding="UTF-8"?>
<svg width="24px" height="22px" viewBox="0 0 24 22" version="1.1" xmlns="http://www.w3.org/2000/svg" xmlns:xlink="http://www.w3.org/1999/xlink">
    <!-- Generator: Sketch 50.2 (55047) - http://www.bohemiancoding.com/sketch -->
    <title>headphones</title>
    <desc>Created with Sketch.</desc>
    <defs></defs>
    <g id="Design" stroke="none" stroke-width="1" fill="none" fill-rule="evenodd">
        <g id="v.2-Post" transform="translate(-401.000000, -1034.000000)">
            <g id="Audio" transform="translate(20.000000, 795.000000)">
                <g id="headphones" transform="translate(381.000000, 239.000000)">
                    <path d="M18.2314696,2.6886572 L17.160347,3.75157289 C15.5761568,2.65252562 13.6556341,2 11.5760497,2 C9.50128535,2 7.58290488,2.64875067 6.0008569,3.74348373 L4.76799486,2.52040266 L4,3.28294086 L5.48404027,4.75624663 C5.58151243,4.9023908 5.74807198,5 5.93873179,5 C6.07369323,5 6.19526564,4.94930793 6.29059554,4.86841632 C7.75589117,3.75049434 9.58429734,3.07855474 11.5760497,3.07855474 C13.5785133,3.07855474 15.4176307,3.75750494 16.8877464,4.88621248 L16.893102,4.87920187 C16.9862896,4.95362215 17.103042,5 17.2315767,5 C17.4222365,5 17.5887961,4.9023908 17.6857326,4.75624663 L19,3.45173468 L18.2314696,2.6886572 Z" id="Shape" fill="#000000" fill-rule="nonzero"></path>
                    <rect id="Rectangle-2" fill="#D96459" x="17" y="12" width="3" height="10"></rect>
                    <rect id="Rectangle-2-Copy" fill="#D96459" x="4" y="12" width="3" height="10"></rect>
                    <path d="M12,0 C5.37272727,0 0,5.4175 0,12.1 C0,14.31925 0.601090909,16.3933 1.63636364,18.18025 L1.63636364,20.35 C1.63636364,20.65415 1.88018182,20.9 2.18181818,20.9 L3.91854545,20.9 C4.14381818,21.5391 4.74327273,22 5.45454545,22 C6.35836364,22 7.09090909,21.26135 7.09090909,20.35 L7.09090909,13.75 C7.09090909,12.83865 6.35836364,12.1 5.45454545,12.1 C4.74272727,12.1 4.14381818,12.5609 3.91854545,13.2 L2.18181818,13.2 C1.88018182,13.2 1.63636364,13.44585 1.63636364,13.75 L1.63636364,15.4726 C1.29163636,14.40835 1.09090909,13.2803 1.09090909,12.1 C1.09090909,6.0247 5.97490909,1.1 12,1.1 C18.0250909,1.1 22.9090909,6.0247 22.9090909,12.1 C22.9090909,13.2803 22.7083636,14.40835 22.3636364,15.4726 L22.3636364,13.75 C22.3636364,13.44585 22.1198182,13.2 21.8181818,13.2 L20.0814545,13.2 C19.8561818,12.5609 19.2567273,12.1 18.5454545,12.1 C17.6416364,12.1 16.9090909,12.83865 16.9090909,13.75 L16.9090909,20.35 C16.9090909,21.26135 17.6416364,22 18.5454545,22 C19.2572727,22 19.8561818,21.5391 20.0814545,20.9 L21.8181818,20.9 C22.1198182,20.9 22.3636364,20.65415 22.3636364,20.35 L22.3636364,18.18025 C23.3989091,16.3933 24,14.3198 24,12.1 C24,5.4175 18.6272727,0 12,0 Z M4.90909091,13.75 C4.90909091,13.44585 5.15290909,13.2 5.45454545,13.2 C5.75618182,13.2 6,13.44585 6,13.75 L6,20.35 C6,20.65415 5.75618182,20.9 5.45454545,20.9 C5.15290909,20.9 4.90909091,20.65415 4.90909091,20.35 L4.90909091,13.75 Z M2.72727273,14.3 L3.81818182,14.3 L3.81818182,19.8 L2.72727273,19.8 L2.72727273,14.3 Z M19.0909091,20.35 C19.0909091,20.65415 18.8470909,20.9 18.5454545,20.9 C18.2438182,20.9 18,20.65415 18,20.35 L18,13.75 C18,13.44585 18.2438182,13.2 18.5454545,13.2 C18.8470909,13.2 19.0909091,13.44585 19.0909091,13.75 L19.0909091,20.35 Z M21.2727273,19.8 L20.1818182,19.8 L20.1818182,14.3 L21.2727273,14.3 L21.2727273,19.8 Z" id="Shape" fill="#000000" fill-rule="nonzero"></path>
                </g>
            </g>
        </g>
    </g>
</svg>
